svgs/thin/text-size.svg

<svg xmlns="http://www.w3.org/2000/svg" viewBox="0 0 640 512"><!-- Font Awesome Pro 6.0.0-alpha2 by @fontawesome - https://fontawesome.com License - https://fontawesome.com/license (Commercial License) --><path d="M0 40L0 120C0 124.422 3.578 128 8 128S16 124.422 16 120V48H184V464H104C99.578 464 96 467.578 96 472S99.578 480 104 480H280C284.422 480 288 476.422 288 472S284.422 464 280 464H200V48H368V120C368 124.422 371.578 128 376 128S384 124.422 384 120V40C384 35.578 380.422 32 376 32H8C3.578 32 0 35.578 0 40ZM320 232V312C320 316.422 323.578 320 328 320S336 316.422 336 312V240H472V464H408C403.578 464 400 467.578 400 472S403.578 480 408 480H552C556.422 480 560 476.422 560 472S556.422 464 552 464H488V240H624V312C624 316.422 627.578 320 632 320S640 316.422 640 312V232C640 227.578 636.422 224 632 224H328C323.578 224 320 227.578 320 232Z"/></svg>

<svg xmlns="http://www.w3.org/2000/svg" viewBox="0 0 640 512"><!--! Font Awesome Pro 6.3.0 by @fontawesome - https://fontawesome.com License - https://fontawesome.com/license (Commercial License) Copyright 2023 Fonticons, Inc. --><path d="M0 40l0 80C0 124.4 3.578 128 8 128S16 124.4 16 120V48h168v416h-80C99.58 464 96 467.6 96 472S99.58 480 104 480h176C284.4 480 288 476.4 288 472S284.4 464 280 464h-80v-416h168v72C368 124.4 371.6 128 376 128S384 124.4 384 120v-80C384 35.58 380.4 32 376 32H8C3.578 32 0 35.58 0 40zM320 232v80C320 316.4 323.6 320 328 320s8-3.578 8-8V240h136v224h-64c-4.422 0-8 3.578-8 8S403.6 480 408 480h144c4.422 0 8-3.578 8-8s-3.578-8-8-8h-64v-224h136v72c0 4.422 3.578 8 8 8S640 316.4 640 312v-80C640 227.6 636.4 224 632 224h-304C323.6 224 320 227.6 320 232z"/></svg>
